src/icons/magic-cloud-networking.svg

<svg viewBox="0 0 64 64" xmlns="http://www.w3.org/2000/svg"><path d="M60.519 27.763C58.7274 26.2701 56.4651 25.4595 54.133 25.475C53.6711 22.587 52.4247 19.8814 50.5297 17.6536C48.6348 15.4258 46.1642 13.7615 43.3876 12.8424C40.6111 11.9232 37.6354 11.7846 34.7855 12.4416C31.9355 13.0986 29.3209 14.5261 27.227 16.568C27.111 16.568 26.998 16.552 26.882 16.552C23.7458 16.5392 20.676 17.4548 18.0593 19.1834C15.4425 20.912 13.3958 23.3763 12.177 26.266C9.32267 26.1524 6.5288 27.1089 4.343 28.948C2.99762 30.0795 1.91291 31.4886 1.16327 33.0787C0.413632 34.6688 0.0168006 36.4022 0 38.16C0.00686943 41.3091 1.26096 44.3273 3.48781 46.5539C5.71465 48.7806 8.7329 50.0344 11.882 50.041H42.482C44.1431 50.04 45.7781 49.6267 47.2401 48.8382C48.7022 48.0497 49.9457 46.9105 50.859 45.523H53.959C56.0138 45.5059 58.0147 44.8639 59.6958 43.6823C61.377 42.5007 62.6587 40.8354 63.3707 38.9079C64.0827 36.9803 64.1912 34.8817 63.6818 32.891C63.1724 30.9003 62.0693 29.1117 60.519 27.763ZM42.486 46.041H11.86C9.77445 46.0323 7.77711 45.1985 6.30436 43.7218C4.8316 42.2451 4.00315 40.2456 4 38.16C4.0139 36.9854 4.28158 35.8276 4.78472 34.7661C5.28786 33.7046 6.01455 32.7644 6.915 32.01C8.24918 30.8723 9.94658 30.2497 11.7 30.255C12.1932 30.2563 12.6853 30.3002 13.171 30.386L14.908 30.686L15.431 29C16.2673 26.288 18.0392 23.9609 20.4311 22.4334C22.823 20.9059 25.6795 20.2772 28.4917 20.6592C31.3039 21.0413 33.8892 22.4093 35.7869 24.5195C37.6846 26.6298 38.7715 29.3452 38.854 32.182L38.917 34.464L41.171 34.101C42.0871 33.9005 43.0363 33.9061 43.95 34.1175C44.8637 34.3288 45.719 34.7406 46.454 35.323C47.1132 35.9095 47.6391 36.6303 47.9964 37.4371C48.3536 38.2438 48.5339 39.1177 48.525 40C48.5237 41.6014 47.8871 43.1369 46.7549 44.2695C45.6227 45.402 44.0874 46.0392 42.486 46.041ZM53.958 41.523H52.4C52.6718 39.825 52.5069 38.0857 51.9208 36.469C51.3347 34.8523 50.3468 33.4114 49.05 32.282C47.2581 30.7887 44.9955 29.9778 42.663 29.993C42.2302 27.2037 41.0608 24.5804 39.2754 22.3941C37.4901 20.2078 35.1535 18.5376 32.507 17.556C34.3046 16.5514 36.3308 16.0271 38.39 16.0339C40.4493 16.0406 42.472 16.578 44.263 17.5943C46.054 18.6107 47.5528 20.0715 48.6146 21.8359C49.6765 23.6003 50.2656 25.6086 50.325 27.667L50.389 29.95L52.643 29.586C53.5592 29.3862 54.5082 29.3922 55.4218 29.6035C56.3353 29.8148 57.1906 30.2262 57.926 30.808C58.5856 31.3943 59.1121 32.115 59.4698 32.9218C59.8276 33.7285 60.0083 34.6025 60 35.485C59.9979 37.0864 59.3605 38.6216 58.2278 39.7536C57.095 40.8856 55.5594 41.522 53.958 41.523Z"/></svg>

<svg xmlns="http://www.w3.org/2000/svg" viewBox="0 0 64 64"><path d="M60.519 27.763a9.87 9.87 0 0 0-6.386-2.288 15.962 15.962 0 0 0-26.906-8.907c-.116 0-.229-.016-.345-.016a15.89 15.89 0 0 0-14.705 9.714 11.46 11.46 0 0 0-7.834 2.682A12.19 12.19 0 0 0 0 38.16a11.907 11.907 0 0 0 11.882 11.881h30.6a10.04 10.04 0 0 0 8.377-4.518h3.1a10.123 10.123 0 0 0 6.56-17.76M42.486 46.041H11.86A7.893 7.893 0 0 1 4 38.16a8.15 8.15 0 0 1 2.915-6.15 7.34 7.34 0 0 1 4.785-1.755q.74.002 1.471.131l1.737.3.523-1.686a11.98 11.98 0 0 1 23.423 3.182l.063 2.282 2.254-.363a6.33 6.33 0 0 1 5.283 1.222A6.18 6.18 0 0 1 48.525 40a6.046 6.046 0 0 1-6.039 6.041m11.472-4.518H52.4a10.13 10.13 0 0 0-3.35-9.241 9.88 9.88 0 0 0-6.387-2.289 15.86 15.86 0 0 0-10.156-12.437 11.978 11.978 0 0 1 17.818 10.111l.064 2.283 2.254-.364a6.34 6.34 0 0 1 5.283 1.222A6.18 6.18 0 0 1 60 35.485a6.046 6.046 0 0 1-6.042 6.038"/></svg>
